libs/ui/packages/crypto-icons/src/svg/REP.svg

<svg width="24" height="24" viewBox="0 0 24 24" fill="none">
<path fill-rule="evenodd" clip-rule="evenodd" d="M15.061 12.2343C14.8523 11.6522 14.4798 11.1427 13.9885 10.7673L13.9832 10.7613C13.9312 10.7219 13.8779 10.6841 13.8235 10.648L13.813 10.6405C13.7594 10.6053 13.7049 10.5716 13.6495 10.5393L13.6345 10.5303C13.5802 10.4988 13.5244 10.47 13.4672 10.444L13.4507 10.435C13.3923 10.4075 13.3333 10.3813 13.2737 10.3563L13.2542 10.3488C13.0616 10.2688 12.8617 10.2075 12.6572 10.1658C12.5395 10.3794 12.388 10.5726 12.2087 10.738C12.6298 10.7716 13.0365 10.9061 13.3945 11.1303L13.4147 11.1423L13.5137 11.2098L13.5587 11.2413C13.5887 11.2638 13.6165 11.2863 13.6472 11.3088L13.6975 11.3493C13.7245 11.3718 13.7492 11.3943 13.7747 11.4175L13.8257 11.4663L13.8955 11.5368L13.9465 11.5915L14.0087 11.6643L14.0575 11.725L14.1137 11.8C14.1325 11.8248 14.1452 11.8443 14.1602 11.866C14.1752 11.8878 14.1947 11.9163 14.2105 11.9425L14.254 12.0145C14.2675 12.0385 14.284 12.0655 14.2975 12.091C14.3125 12.1158 14.3245 12.1435 14.338 12.1705C14.3507 12.1975 14.3635 12.22 14.3747 12.2455C14.3888 12.2788 14.4023 12.3123 14.4152 12.346C14.4864 12.5236 14.5367 12.7088 14.5652 12.898L14.647 13.201C14.6815 13.327 15.0002 14.443 15.739 14.8188C16.5857 15.253 17.707 15.7893 18.148 16.0015L12.3235 19.4215V17.0778C12.3235 16.708 13.0735 16.2753 13.4207 16.123L13.441 16.1118C13.5122 16.0765 13.5835 16.0383 13.651 15.9978L13.6802 15.9828C13.8305 15.8923 13.9734 15.7902 14.1077 15.6775L14.1437 15.6453L14.185 15.6085C14.2272 15.5706 14.2685 15.5315 14.3087 15.4915L14.3297 15.4713C14.374 15.427 14.4182 15.385 14.4572 15.3333L14.494 15.2913C14.527 15.2523 14.5585 15.2125 14.5892 15.172L14.6162 15.1383C14.6537 15.0888 14.6882 15.0378 14.7227 14.986L14.7347 14.971C14.7812 14.8983 14.8225 14.8255 14.866 14.7498C14.7027 14.5526 14.5627 14.3371 14.449 14.1078C14.4025 14.2375 14.344 14.3635 14.2765 14.4843C14.248 14.5368 14.218 14.5878 14.188 14.6373L14.1745 14.6575C14.1462 14.6996 14.1167 14.7409 14.086 14.7813L14.059 14.8158C14.0284 14.8552 13.9964 14.8935 13.963 14.9305L13.945 14.9515C13.728 15.1885 13.4689 15.383 13.1807 15.5253L13.126 15.553C12.9782 15.6183 11.6762 16.1958 11.6762 17.074V19.4185L5.83375 15.9925C6.2095 15.763 7.3075 15.124 8.2105 14.8428C8.56375 14.7348 9.31375 15.1975 9.739 15.5373L9.7645 15.5598C9.82075 15.6123 9.88 15.6625 9.9415 15.7098L9.9625 15.7285C10.0975 15.8365 10.2415 15.9333 10.3922 16.0188L10.4935 16.0735L10.5137 16.084C10.612 16.1335 10.7125 16.1785 10.8152 16.2183L10.8602 16.2355L10.8902 16.2475C11.038 16.3015 11.1902 16.3435 11.344 16.375C11.465 16.1587 11.6211 15.9641 11.806 15.799C11.5595 15.7808 11.3169 15.7277 11.0852 15.6415L11.0455 15.6265L10.969 15.5958L10.93 15.5793L10.8557 15.5448C10.6838 15.4613 10.5216 15.3592 10.372 15.2403L10.1395 15.0333C9.92601 14.8494 9.69489 14.6871 9.4495 14.5488C8.872 14.2263 8.389 14.1213 8.0185 14.2353C7.246 14.4738 6.376 14.9373 5.845 15.2433L11.6785 4.9555V9.46076C11.6785 9.62051 11.4385 10.0375 10.6367 10.3915L10.5812 10.4215C10.5032 10.459 10.4275 10.4995 10.3532 10.543L10.3382 10.5505C10.0914 10.6959 9.8649 10.8735 9.66475 11.0785L9.65725 11.086C9.58138 11.164 9.50953 11.2459 9.442 11.3313L9.43375 11.3425C9.40115 11.3841 9.3694 11.4264 9.3385 11.4693L9.328 11.4843C9.30019 11.5247 9.27318 11.5657 9.247 11.6073L9.238 11.62C9.21159 11.6626 9.18633 11.7058 9.16225 11.7498L9.145 11.7805C9.12325 11.8225 9.1015 11.8675 9.07975 11.9065L9.07 11.9268C9.05068 11.9663 9.03242 12.0063 9.01525 12.0468L8.9965 12.0918C8.97925 12.1338 8.9635 12.1788 8.94775 12.2193L8.93275 12.2643C8.92127 12.2964 8.91077 12.3289 8.90125 12.3618C8.896 12.3798 8.89 12.397 8.8855 12.4158C8.84245 12.5664 8.8111 12.7201 8.79175 12.8755L8.78425 12.9453C8.7807 12.9769 8.77795 13.0087 8.776 13.0405C8.7745 13.0728 8.776 13.1043 8.77075 13.1358C8.7655 13.168 8.77075 13.1748 8.77075 13.1958V13.267C8.77075 13.4245 8.78275 13.582 8.80675 13.7388C9.05799 13.8001 9.30116 13.8907 9.53125 14.0088C9.46061 13.7823 9.42273 13.5469 9.41875 13.3098V13.267C9.41875 13.21 9.41875 13.1538 9.4255 13.0938V13.0488C9.4255 13 9.43525 12.9505 9.442 12.9018V12.8808C9.44975 12.8265 9.46026 12.7727 9.4735 12.7195L9.4825 12.6783C9.49375 12.6333 9.505 12.5898 9.51925 12.5455L9.52825 12.517C9.54325 12.4653 9.562 12.415 9.5815 12.3648L9.5965 12.331C9.613 12.2898 9.631 12.2485 9.64975 12.2073L9.664 12.1758C9.68725 12.127 9.71275 12.0798 9.739 12.0325L9.75325 12.0093C9.77688 11.9686 9.80164 11.9286 9.8275 11.8893L9.84625 11.8615C9.877 11.8165 9.9085 11.7745 9.94225 11.728L9.94825 11.7205C9.9805 11.6793 10.0142 11.6395 10.0487 11.6005L10.0675 11.578C10.2257 11.404 10.4072 11.2518 10.6075 11.1258L10.8835 10.9983C11.0312 10.933 12.3272 10.3398 12.3272 9.46076V4.9555L18.2065 15.3205C17.6815 15.0678 16.759 14.6215 16.039 14.2555C15.628 14.0455 15.3475 13.3053 15.2755 13.0398L15.196 12.7285C15.1666 12.5615 15.1234 12.3972 15.067 12.2373L15.061 12.2343ZM19.0435 15.4968L12.5635 4.07725C12.5063 3.97737 12.4236 3.89447 12.3238 3.83702C12.2241 3.77957 12.1109 3.74963 11.9957 3.75025C11.8809 3.74989 11.768 3.77996 11.6685 3.8374C11.5691 3.89484 11.4866 3.9776 11.4295 4.07725L4.957 15.4975C4.87552 15.6415 4.85424 15.8118 4.89779 15.9714C4.94134 16.131 5.04619 16.2669 5.1895 16.3495L11.6672 20.1595C11.7683 20.2186 11.8832 20.2497 12.0002 20.2497C12.1173 20.2497 12.2322 20.2186 12.3332 20.1595L18.8102 16.3525C18.9535 16.27 19.0583 16.1343 19.102 15.9749C19.1457 15.8155 19.1247 15.6452 19.0435 15.5013L19.045 15.4968H19.0435Z" fill="#602A52"/>
</svg>

<svg width="24" height="24" viewBox="0 0 24 24" fill="none"><path fill="#602a52" fill-rule="evenodd" d="M15.061 12.234a3.2 3.2 0 0 0-1.072-1.467l-.006-.006a3 3 0 0 0-.16-.113l-.01-.008a4 4 0 0 0-.164-.1l-.014-.01a2 2 0 0 0-.168-.086l-.016-.009-.177-.079-.02-.007a3.3 3.3 0 0 0-.597-.183 2.3 2.3 0 0 1-.448.572c.42.034.828.168 1.186.392l.02.012.099.068.045.031.088.068.05.04q.04.034.078.069l.05.048.07.07.052.056.062.072.048.061.057.075.046.066c.015.022.035.05.05.077l.044.072.043.076.041.08c.013.027.026.049.037.075l.04.1q.107.268.15.552l.082.303c.034.126.353 1.242 1.092 1.618.847.434 1.968.97 2.409 1.182l-5.824 3.42v-2.343c0-.37.75-.803 1.097-.955l.02-.011q.108-.053.21-.114l.03-.015q.225-.136.427-.306l.036-.032.041-.037q.063-.056.124-.117l.02-.02c.045-.044.09-.086.128-.138l.037-.042q.05-.059.095-.119l.027-.034q.056-.075.107-.152l.012-.015q.068-.109.131-.221a3.3 3.3 0 0 1-.417-.642q-.07.195-.172.376l-.089.153-.014.02-.088.124-.027.035q-.046.06-.096.114l-.018.021a2.6 2.6 0 0 1-.764.574l-.055.028c-.148.065-1.45.643-1.45 1.521v2.345l-5.842-3.427c.376-.229 1.474-.868 2.377-1.15.353-.107 1.103.355 1.528.695l.025.023q.085.078.178.15l.02.018q.204.162.43.29l.101.055.02.011q.149.075.302.134l.045.017.03.012q.222.081.454.128.183-.326.462-.576a2.6 2.6 0 0 1-.72-.157l-.04-.015-.077-.031-.039-.017-.074-.034a2.6 2.6 0 0 1-.484-.305l-.232-.207a4.3 4.3 0 0 0-.69-.484c-.578-.323-1.061-.428-1.431-.314-.773.239-1.643.702-2.174 1.008l5.834-10.288v4.506c0 .16-.24.576-1.042.93l-.056.03a3 3 0 0 0-.228.122l-.015.008a3.2 3.2 0 0 0-.673.527l-.008.008q-.114.117-.215.245l-.008.011-.095.127-.011.015q-.042.06-.081.123l-.009.013-.076.13-.017.03q-.032.067-.065.127l-.01.02q-.03.06-.055.12l-.019.045q-.026.065-.048.127l-.015.045-.032.098-.015.054q-.066.226-.094.46l-.008.07-.008.095c-.002.032 0 .063-.005.095-.006.032 0 .039 0 .06v.071q0 .237.036.472a3.3 3.3 0 0 1 .724.27 2.5 2.5 0 0 1-.112-.7v-.042q-.002-.084.006-.173v-.045c0-.049.01-.098.017-.147v-.021a2 2 0 0 1 .031-.162l.01-.04q.015-.069.036-.133l.01-.029q.022-.078.053-.152l.014-.034.054-.124.014-.031a3 3 0 0 1 .075-.143l.014-.024.075-.12.018-.027.096-.134.006-.008.1-.12.02-.022q.239-.262.54-.452l.275-.128c.148-.065 1.444-.658 1.444-1.537V4.955l5.88 10.365c-.526-.252-1.448-.699-2.168-1.065-.411-.21-.692-.95-.764-1.215l-.079-.311a3 3 0 0 0-.129-.492zm3.983 3.263-6.48-11.42a.65.65 0 0 0-.568-.327.65.65 0 0 0-.566.327l-6.473 11.42a.627.627 0 0 0 .232.852l6.478 3.81a.66.66 0 0 0 .666 0l6.477-3.806a.627.627 0 0 0 .234-.852l.001-.004z" clip-rule="evenodd"/></svg>
